X:1
T:The Pilgrim Host, SMD
T:The Pilgrim Host, SMD
T:William Wallace Gilchrist, 1895
T:Public Domain Courtesy of the Cyber Hymnal™
C:William Wallace Gilchrist, 1895
Z:Public Domain
Z:Courtesy of the Cyber Hymnal™
%%score ( 1 2 ) ( 3 4 )
L:1/8
Q:1/4=110
M:4/4
K:F
V:1 treble 
V:2 treble 
V:3 bass 
V:4 bass 
V:1
 [Ac]2 | [Gc]3 [FB] [EA]2 [CG]2 | F4 [CF]2 (3(CDE) | F2 [FG]2 [FA]2 [Cc]2 | (c4 B2) [FA]2 | %5
 [EG]3 [EA] F2 [Fc]2 | [EG]3 [EA] F2 [FA]2 | [FG]2 [FA]2 [F=B]2 [Ge]2 | [Ec]6 [Fc]2 | %9
 _e3 z e [Fd]2 [F^c]2 | [Fd]6 [DB]2 | d3 z d [Ec]2 [EB]2 | [FA]2 [Cc]4 (3(c{d'}de) | %13
 [Ff]2 [Ae]2 [Dd]2 [Fc]2 | [Fc]2 [EB]2 [FA]2 [Fc]2 | c6 z2 B2 | A6 [=EG]2 x2 | F6 |] %18
V:2
 x2 | x8 | C2 D2 x4 | F2 x6 | F6 x2 | x4 F2 x2 | x4 F2 x2 | x8 | x8 | G2 G2 x5 | x8 | D2 G2 x5 | %12
 x6 C2 | x8 | x8 | F4 F4 x2 | (F2 D2 _E2) x4 | F6 |] %18
V:3
 [F,F]2 | [F,E]3 [F,D] [F,C]2 [F,B,]2 | (A,2 A,2 [F,A,]2) [G,B,]2 | %3
 [A,C]2 [G,B,]2 [F,A,]2 [D,G,]2 | (A,4 B,2) [C,C]2 | [B,C]3 [B,C] [A,C]2 [C,A,]2 | %6
 [B,C]3 [B,C] [A,C]2 [F,C]2 | [G,=B,]2 [G,,C]2 [G,D]2 [G,B,]2 | [C,C]6 [F,A,]2 | %9
 B,3 z B, [F,B,]2 [F,A,]2 | B,6 [A,B,]2 | B,2 B,2 A,2 G,2 x | ([F,A,]2 [G,B,]2 [A,C]2) [B,C]2 | %13
 [A,C]2 [F,C]2 B,2 [A,,C]2 | [G,D]2 [C,C]2 [F,C]2 [A,,C]2 | [D,A,]4 [G,,D]4 x2 | C6 z2 B,2 | %17
 [F,,F,A,]6 |] %18
V:4
 x2 | x8 | F,4 x4 | x8 | D,6 x2 | x8 | x8 | x8 | x8 | _E,2 C,2 x5 | (B,,2 F,2 B,2) x2 | G,4 C,4 x | %12
 x8 | x4 B,2 x2 | x8 | x10 | C,4 C,4 x2 | x6 |] %18

